assets/icon-shoe.svg

<svg
  class="icon icon-accordion icon-shoe"

  focusable="false"
  xmlns="http://www.w3.org/2000/svg"


  viewBox="0 0 20 20"
>
  <path d="M12.8224 4.03182L12.8025 4.03174C12.542 4.03174 12.3153 4.21802 12.2775 4.47255C12.2579 4.61681 12.0795 5.67852 11.4659 6.79358C10.8407 7.92973 9.72533 9.1832 7.81577 9.49259C5.83649 9.81404 4.11637 10.1581 2.89249 10.7606C2.28904 11.0577 1.83597 11.4041 1.53332 11.8155C1.23568 12.22 1.06157 12.7168 1.06157 13.3581V13.4819V13.9977V15.4525C1.06157 15.7001 1.24601 15.9099 1.48733 15.958H18.4076C18.6983 15.958 18.9384 15.7247 18.9384 15.4421V13.9977C18.9442 13.796 18.945 13.667 18.9421 13.4819C18.9408 13.4368 18.9384 13.3932 18.9384 13.3478V5.22846C18.9384 4.97383 18.7359 4.75007 18.4718 4.71927L18.4692 4.71896L12.8322 4.03422L12.8224 4.03182ZM2.12314 16.9897V17H1.59236C0.715348 17 0 16.3048 0 15.4525V13.359C0 12.5199 0.233271 11.8087 0.669786 11.2154C1.10128 10.6289 1.70913 10.1867 2.41275 9.84032C3.80301 9.15585 5.68163 8.7932 7.64079 8.47502C9.10688 8.23755 9.99265 7.28323 10.5298 6.30706C10.7978 5.82005 10.9708 5.34056 11.0778 4.97162C11.1311 4.78784 11.1675 4.63343 11.191 4.5218C11.2027 4.46602 11.2111 4.42124 11.2167 4.38917C11.2223 4.35718 11.2248 4.33924 11.2248 4.33924L11.2258 4.3316C11.3376 3.55552 12.0233 3.00005 12.8025 3.00005C12.8025 3.00005 12.807 3.00004 12.8098 3.00003C12.8443 2.99989 12.926 2.99954 13.0186 3.01715L18.5982 3.69494L18.5997 3.6951C19.3964 3.78872 20 4.45187 20 5.22846V13.3478C20 13.3478 20 13.352 20 13.3543C20 13.3806 20.0001 13.4225 19.9941 13.4747C19.9944 13.4773 19.9948 13.48 19.9951 13.4826C19.9971 13.5007 20 13.53 20 13.5645V15.4421C20 16.2945 19.2846 16.9897 18.4076 16.9897H2.12314Z"/>
  <path d="M18.9384 13.9977H1.06157V13.4819H18.9421L18.9461 13.7315L18.9384 13.9977Z"/>
</svg>

<svg xmlns="http://www.w3.org/2000/svg" class="icon icon-accordion icon-shoe" viewBox="0 0 20 20"><path d="M12.822 4.032h-.02a.53.53 0 0 0-.524.44 7.5 7.5 0 0 1-.812 2.322c-.625 1.136-1.74 2.39-3.65 2.699-1.98.321-3.7.665-4.924 1.268-.603.297-1.056.643-1.359 1.055-.297.404-.471.9-.471 1.542v2.095c0 .247.184.457.425.505h16.92c.291 0 .531-.233.531-.516v-1.444c.006-.202.007-.331.004-.516q-.003-.067-.004-.134v-8.12a.524.524 0 0 0-.466-.509h-.003l-5.637-.685zM2.123 16.99V17h-.53C.714 17 0 16.305 0 15.453v-2.094c0-.84.233-1.55.67-2.144.431-.586 1.04-1.028 1.743-1.375 1.39-.684 3.269-1.047 5.228-1.365 1.466-.237 2.352-1.192 2.889-2.168a6.6 6.6 0 0 0 .687-1.918l.008-.05v-.007C11.339 3.556 12.024 3 12.804 3h.007c.034 0 .116 0 .209.017l5.58.678C19.397 3.79 20 4.452 20 5.228v8.126q.002.042-.006.12l.001.009a1 1 0 0 1 .005.082v1.877c0 .852-.715 1.548-1.592 1.548z"/><path d="M18.938 13.998H1.062v-.516h17.88l.004.25z"/></svg>
